X: 1134
T: Bill Sullivan's Polka
M: 2/4
L: 1/8
R: polka
K: G Major
g2 g>e | dB g2 | Bd ge | dB AG |
g/a/g/f/ g>e | dB g2 | Bd A>c | BG G2 :|
Bd dB | ce e2 | Bd dB | cA A2 |
Bd d/c/B | ce e>c | Bd A>c | BG G2 :|
N: take 2
g2 ge | dB g/a/g/e/ | dB g>e | dB AG |
g2 g/a/g/e/ | dB gf/e/ | dB A>B | AG G2 :|
Bd d/e/d/B/ | ce e/d/c | Bd/^c/ d/B/G | BA AG/A/ |
Bd Bd | ce e>c | Bd A>B | AG G2 :|
